X: 6708
T: Ceol Sa Bhaile
R: jig
M: 6/8
K: Gmajor
|:BAB G2D|GAG GBd|cBA GFG|Ade dcA|
~B3 G2D|GAG GBd|gfe dcB|AFA cBA:|
|:~B3 ded|dBd gdc|~B3 ded|ece afd|
~B3 ded|ded def|gfe dcB|AFA cBA:|

